tools/download-figma-icons/icons/solid/landlord.svg

<svg width="24" height="24" viewBox="0 0 24 24" fill="none" xmlns="http://www.w3.org/2000/svg">
<path fill-rule="evenodd" clip-rule="evenodd" d="M5.91238 6.66398C6.03988 7.21073 6.58063 7.55573 7.12738 7.43573C7.67488 7.31648 8.01988 6.76823 7.89313 6.22148C7.77238 5.67323 7.23238 5.32823 6.68488 5.45573C6.13813 5.57648 5.79238 6.11573 5.91238 6.66398ZM18.4456 2.31325L19.9974 3.319C20.1624 3.43075 20.2149 3.65575 20.1099 3.82825L19.1274 5.39575C19.0756 5.479 18.9924 5.539 18.8949 5.56075L17.8831 5.7865L16.9674 6.724C16.8624 6.82825 16.7056 6.85825 16.5706 6.81325L15.4749 6.39325L14.6574 7.23325C14.5524 7.33825 14.3949 7.37575 14.2524 7.324L13.0374 6.85825L11.7174 7.15075C11.3724 8.64325 10.2099 9.79825 8.69564 10.1365C8.40239 10.2032 8.10989 10.2332 7.81739 10.2332C7.06739 10.2332 6.33239 10.0232 5.67989 9.61075C4.77989 9.034 4.15739 8.14825 3.93239 7.1065C3.70064 6.06325 3.88814 4.99075 4.45739 4.09075C5.02739 3.1915 5.91989 2.569 6.96239 2.34325C8.49989 2.0065 10.0974 2.599 11.0274 3.84325L18.1599 2.2615C18.2581 2.23825 18.3624 2.2615 18.4456 2.31325ZM12.3367 23.6881L22.8525 18.5656C23.865 18.0714 24.285 16.8489 23.79 15.8356C23.295 14.8239 22.0725 14.3956 21.0592 14.8914L19.035 15.8814L19.0365 15.9027C19.0435 15.9996 19.05 16.0903 19.05 16.1881C19.05 17.8456 17.7075 19.1881 16.05 19.1881H9.105C8.6925 19.1881 8.355 18.8514 8.355 18.4381C8.355 18.0256 8.6925 17.6881 9.105 17.6881H16.05C16.8825 17.6881 17.55 17.0139 17.55 16.1881C17.55 15.4981 17.085 14.9139 16.4475 14.7406C16.3717 14.7181 16.2825 14.7106 16.2 14.7039H16.17C16.1325 14.6881 16.095 14.6881 16.05 14.6881H11.475C11.0175 13.8406 9.78 12.3106 6.71175 12.3106H0.75C0.33675 12.3106 0 12.6481 0 13.0606V19.5189C0 19.8489 0.21 20.1414 0.52425 20.2381L11.7742 23.7339C11.7825 23.7406 11.7975 23.7406 11.8125 23.7406C11.8717 23.7639 11.9317 23.7706 12 23.7706C12.1125 23.7706 12.225 23.7481 12.33 23.6964L12.3367 23.6881Z" fill="black"/>
</svg>

<svg xmlns="http://www.w3.org/2000/svg" width="24" height="24" fill="none" viewBox="0 0 24 24"><path fill="currentColor" fill-rule="evenodd" d="M5.912 6.664c.128.547.669.892 1.215.772a1.01 1.01 0 0 0 .766-1.215 1.003 1.003 0 0 0-1.208-.765c-.547.12-.893.66-.773 1.208m12.534-4.35 1.551 1.005a.38.38 0 0 1 .113.51l-.983 1.567a.37.37 0 0 1-.232.165l-1.012.226-.916.937a.39.39 0 0 1-.396.09l-1.096-.42-.818.84a.39.39 0 0 1-.405.09l-1.215-.466-1.32.293a3.97 3.97 0 0 1-3.021 2.986A3.98 3.98 0 0 1 5.68 9.61a3.95 3.95 0 0 1-1.748-2.505 4 4 0 0 1 .525-3.015 3.93 3.93 0 0 1 2.505-1.748 4.01 4.01 0 0 1 4.065 1.5L18.16 2.26a.38.38 0 0 1 .286.052m-6.11 21.374 10.516-5.122a2.045 2.045 0 0 0-1.793-3.674l-2.024.99.002.02a3 3 0 0 1-2.986 3.285H9.104a.75.75 0 0 1-.75-.749c0-.412.338-.75.75-.75h6.945a1.5 1.5 0 0 0 1.5-1.5 1.5 1.5 0 0 0-1.102-1.447 1.3 1.3 0 0 0-.248-.037h-.03c-.038-.016-.075-.016-.12-.016h-4.575c-.457-.847-1.695-2.377-4.763-2.377H.75a.75.75 0 0 0-.75.75v6.458c0 .33.21.622.524.72l11.25 3.495q.015.009.039.007a.5.5 0 0 0 .187.03.74.74 0 0 0 .33-.075z" clip-rule="evenodd"/></svg>
